X:97
T: Verschlafener Jaeger
N: Q1152N
O: Mitteleuropa, Deutschland
N: Melodievergleich zu Q0152O und P, anderes Lied.
N: Refrain auf sinnfreie Silben.
R: Wandervogel - Lied
M: 3/4
L: 1/8
K: C
 | G4G2 | G2A2G2 | E4E2 | E2D2E2 |
F3FF2 | G4G2 | E6- | E2z4 |
G4G2 | G2A2G2 | E4E2 | E2D2E2 |
F3FF2 | G4G2 | E6- | E2z4 |
c4c2 | c2B2A2 | A3GG2 | G6 |
A3AA2 | A2G2F2 | F3EE2 | E6 |
G3GG2 | G3AG2 | E3EE2 | E3DE2 |
F3FF2 | G4G2 | E6- | E2z4

@@@ Tune index: 1700
